packages/foundations/assets/icons/functional/images/transportation/scooter_12.svg

<svg width="12" height="12" viewBox="0 0 12 12" fill="none" xmlns="http://www.w3.org/2000/svg">
<g clip-path="url(#clip0_232_495)">
<path fill-rule="evenodd" clip-rule="evenodd" d="M8.86694 2.40381C9.58977 2.40381 10.197 3.06579 10.197 3.74041L10.2 5.39625C10.2 5.52819 10.1565 5.65567 10.0775 5.75954L7.63091 8.23244C7.53703 8.32705 7.4405 8.39625 7.205 8.39625C7.048 8.39625 6.24734 8.39625 4.80301 8.39625C4.79554 9.05257 4.24516 9.59625 3.59995 9.59625C2.95475 9.59625 2.39995 9.06525 2.40374 8.39625H1.80007C1.47472 8.39625 1.20411 8.16428 1.20411 7.79763L1.20007 7.00982C1.20007 5.83403 2.12264 4.87361 3.28337 4.81287L4.58647 4.80981L4.42435 4.19505L2.99385 4.19539C2.63601 4.19505 2.39995 3.90309 2.39995 3.59539C2.39995 3.28769 2.62445 3.00381 2.99385 2.99539H4.5537C4.96851 2.99539 5.38972 3.31402 5.53392 3.70926L6.46135 7.20945H6.95515L8.99935 5.14905L8.99995 3.83667C8.99995 3.70926 8.96692 3.59539 8.8048 3.59539L7.80417 3.59006C7.4728 3.59006 7.205 3.32676 7.205 2.99539C7.205 2.68769 7.39902 2.40381 7.80417 2.40381H8.86694ZM9.59995 7.19625C10.2627 7.19625 10.8 7.73351 10.8 8.39625C10.8 9.05899 10.2627 9.59625 9.59995 9.59625C8.93721 9.59625 8.39995 9.05899 8.39995 8.39625C8.39995 7.73351 8.93721 7.19625 9.59995 7.19625ZM4.90701 6.00003L3.40394 6.00004C2.8807 6.00004 2.39995 6.50323 2.40374 6.92355C2.40122 7.00628 2.39995 7.10158 2.39995 7.20945L5.22007 7.20981L4.90701 6.00003Z" fill="#1A1C1F"/>
</g>
<defs>
<clipPath id="clip0_232_495">
<rect width="12" height="12" fill="white"/>
</clipPath>
</defs>
</svg>

<svg xmlns="http://www.w3.org/2000/svg" width="12" height="12" fill="none"><g clip-path="url(#a)"><path fill="#1A1C1F" fill-rule="evenodd" d="M8.867 2.404c.723 0 1.33.662 1.33 1.336l.003 1.656a.6.6 0 0 1-.122.364L7.63 8.232c-.094.095-.19.164-.426.164H4.803a1.223 1.223 0 0 1-1.203 1.2c-.645 0-1.2-.53-1.196-1.2H1.8a.58.58 0 0 1-.596-.598L1.2 7.01a2.2 2.2 0 0 1 2.083-2.197l1.303-.003-.162-.615h-1.43a.593.593 0 0 1-.594-.6.59.59 0 0 1 .594-.6h1.56c.415 0 .836.319.98.714l.927 3.5h.494L9 5.15V3.837c0-.128-.032-.242-.194-.242l-1-.005a.595.595 0 0 1-.6-.595c0-.307.194-.591.6-.591zM9.6 7.196a1.2 1.2 0 1 1 0 2.4 1.2 1.2 0 0 1 0-2.4M4.907 6H3.404c-.523 0-1.004.503-1 .924a10 10 0 0 0-.004.285h2.82z" clip-rule="evenodd"/></g><defs><clipPath id="a"><path fill="#fff" d="M0 0h12v12H0z"/></clipPath></defs></svg>
